X: 1
T: Dear Lisa
M: 6/8
L: 1/8
R: jig
K: Gmaj
|:GBd e2 d|egd B2 A|GBd e2 d|eaa aga|
bag agf|gfe dBA|BAG EGD|1EGG G2 D:|2EGG G2 A||
|:BAG EGD|EGD EGA|BAG EGD|EAA AGA|
BAG EGD|EGD EGA|BAG EGD|EGG G2 A:|
